X:1
T:Himmlischer Tröster
T:Eduard Grell
T:Himmlischer Tröster
T:CPDL - Creative Commons Attribution Non Commercial 3.0
C:Eduard Grell
Z:CPDL - Creative Commons Attribution Non Commercial 3.0
%%score [ ( 1 2 ) ( 3 4 5 ) ]
L:1/8
M:4/4
K:C
V:1 treble nm="Sopran\nAlt"
V:2 treble 
V:3 bass nm="Tenor\nBass"
V:4 bass 
V:5 bass 
V:1
"^1. Solo\nWiederh. Chor" G4 G2 G2 | A4 !breath!G4 | G6 G2 | G4 !breath!E4 | G6 G2 | %5
w: Himm- li- scher|Trös- ter,|Geist der|Wahr- heit,|der du|
 A4 !breath!G2 G2 | (G2 ^G2) A2 A2 | A3 G !breath!c2 B2 | A8 |1 G8 :|2 !breath!G4"^Solo" B4 |: %11
w: al- les mit|dei- * ner All-|ge- gen- wart er-|fül-|lest!|lest, komm,|
"^1. Solo\nWiederh. Chor" d4 !breath!G2 G2 | G8- | G8- | !breath!G4 e4 | d4 c2 B2 | %16
w: woh- ne in|uns,|_|* und|rei- ni- ge|
 !breath!c4 (_e2 d2) | c4 !breath!c4 |1 (c8 | c2 B2 A2 B2) | !breath!c4"^Chor" e4 :|2 (c8 | %22
w: uns von _|al- len|Sün-||den, komm,|Sün-|
 c2 B2 A2 B2 | c8) | c8 |] %25
w: ||den.|
V:2
 E4 E2 E2 | F4 E4 | (D2 E2 G2) F2 | E4 C4 | E6 E2 | F4 E2 E2 | E4 E2 E2 | ^F3 G F2 G2 | %8
w: ||||||||
 (G2 ^FE F4) |1 G8 :|2 G4 G4 |: F4 F2 F2 | E4 (D2 E2) | (G2 F2) E2 D2 | E4 G4 | F4 F2 F2 | F4 ^F4 | %17
w: ||||uns, komm, _|woh- * ne in|uns, *|||
 ^F4 =A4 |1 (G4 =F2 E2 | F8) | E4 G4 :|2 (G4 =F2 E2 | F8 | E4 F2 D2) | E8 |] %25
w: ||||||||
V:3
 C4 C2 C2 | C4 !breath!C4 | (B,2 C2 E2) D2 | C4 !breath!G,4 | C6 C2 | C4 !breath!C2 C2 | %6
 (E2 D2) C2 E2 | D3 D !breath!D2 D2 | (D6 C2) |1 B,8 :|2 !breath!B,4 D4 |: B,4 B,2 D2 | %12
 C4 (B,2 C2) | (E2 D2) C2 B,2 | !breath!C4 C4 | (C2 B,2) C2 D2 | !breath!C4 (C2 D2) | %17
 _E4 !breath!E4 |1 (=E4 D2 C2 | D8) | !breath!C4 C4 :|2 (=E4 D2 C2 | D8 | C2 _B,2 A,2 F,2) | G,8 |] %25
V:4
 C,4 C,2 C,2 | F,4 C,4 | G,6 G,2 | C,4 C,4 | z4 C,2 C,2 | F,4 C,2 C,2 | (C2 B,2) C2 C2 | %7
w: ||||der du|||
 C3 B, A,2 G,2 | D,8 |1 G,,8 :|2 G,,4 G,4 |: G,4 G,2 G,2 | (C,2 E,2) G,4 | G,4 G,2 G,2 | C,4 C,4 | %15
w: ||||||||
 G,4 G,2 G,2 | _A,4 A,4 | _A,4 ^F,4 |1 (G,8 | G,,8) | C,4 C,4 :|2 (G,8 | G,,8 | C,8) | C,8 |] %25
w: ||||||||||
V:5
 x8 | x8 | x8 | x8 | x8 | x8 | x8 | x8 | x8 |1 G,8 :|2 G,4 x4 |: x8 | x8 | x8 | x8 | x8 | x8 | %17
 x8 |1 x8 | x8 | x8 :|2 x8 | x8 | x8 | x8 |] %25

